.local/share/icons/Gruvbox-Plus-Dark/mimetypes/scalable/gddraw.svg

<svg width="256" height="256" viewBox="0 0 256 256" fill="none" xmlns="http://www.w3.org/2000/svg">
<g opacity="0.4" filter="url(#filter0_f)">
<path d="M55.0839 15.5636H155.608L216.009 75.7129L216.011 224.609C216.011 233.52 208.749 240.737 199.838 240.737H55.0838C46.1734 240.737 39 233.564 39 224.654V31.6474C39 22.737 46.1734 15.5636 55.0838 15.5636H55.0839Z" fill="#282828"/>
</g>
<path d="M55.0839 15H155.608L216.009 75.1493L216.011 224.045C216.011 232.956 208.749 240.174 199.838 240.174H55.0838C46.1734 240.174 39 233 39 224.09V31.0838C39 22.1734 46.1734 15 55.0838 15H55.0839Z" fill="#ebdbb2"/>
<path d="M115.83 116.098H184V184H115.83" fill="url(#paint0_linear)"/>
<path d="M154.784 113.673C154.954 128.51 147.101 142.279 134.222 149.749C127.893 153.417 120.708 155.348 113.394 155.348C106.079 155.348 98.8941 153.417 92.5651 149.749C79.7051 142.284 71.8511 128.509 72.0021 113.673C71.8521 98.8374 79.7051 85.0674 92.5651 77.5984C98.8941 73.9312 106.079 72 113.394 72C120.708 72 127.893 73.9312 134.222 77.5984C147.101 85.0634 154.955 98.8374 154.784 113.673Z" fill="url(#paint1_linear)"/>
<path fill-rule="evenodd" clip-rule="evenodd" d="M155.608 20.3191H55.0839C49.1112 20.3191 44.3191 25.1111 44.3191 31.0838V224.09C44.3191 230.063 49.1111 234.855 55.0838 234.855H199.838C205.83 234.855 210.692 229.999 210.692 224.046V75.1493L155.608 20.3191ZM155.608 15H55.0839C46.1735 15 39 22.1734 39 31.0838V224.09C39 233 46.1734 240.174 55.0838 240.174H199.838C208.749 240.174 216.011 232.956 216.011 224.045L216.009 75.1493L155.608 15Z" fill="url(#paint2_linear)"/>
<path opacity="0.25" d="M155.608 17V61.2306C155.608 70.141 162.867 77.1605 171.777 77.1605L216.009 77.1493V75.1493L155.608 17Z" fill="#282828"/>
<path d="M155.608 15V59.2306C155.608 68.141 162.867 75.1605 171.777 75.1605L216.009 75.1493L155.608 15Z" fill="url(#paint3_linear)"/>
<defs>
<filter id="filter0_f" x="23.8778" y="0.441412" width="207.255" height="255.418" filterUnits="userSpaceOnUse" color-interpolation-filters="sRGB">
<feFlood flood-opacity="0" result="BackgroundImageFix"/>
<feBlend mode="normal" in="SourceGraphic" in2="BackgroundImageFix" result="shape"/>
<feGaussianBlur stdDeviation="7.5611" result="effect1_foregroundBlur"/>
</filter>
<linearGradient id="paint0_linear" x1="115.83" y1="116.098" x2="115.83" y2="184" gradientUnits="userSpaceOnUse">
<stop offset="1e-07" stop-color="#fb4934"/>
<stop offset="0.5" stop-color="#fb4934"/>
<stop offset="1" stop-color="#cc241d"/>
</linearGradient>
<linearGradient id="paint1_linear" x1="72" y1="72" x2="72" y2="155.348" gradientUnits="userSpaceOnUse">
<stop offset="1e-07" stop-color="#b8bb26"/>
<stop offset="1" stop-color="#b8bb26"/>
</linearGradient>
<linearGradient id="paint2_linear" x1="39" y1="15" x2="39" y2="240.174" gradientUnits="userSpaceOnUse">
<stop offset="1e-07" stop-color="#fb4934"/>
<stop offset="0.5" stop-color="#fb4934"/>
<stop offset="1" stop-color="#cc241d"/>
</linearGradient>
<linearGradient id="paint3_linear" x1="155.608" y1="15" x2="155.608" y2="75.1605" gradientUnits="userSpaceOnUse">
<stop offset="1e-07" stop-color="#fb4934"/>
<stop offset="0.5" stop-color="#fb4934"/>
<stop offset="1" stop-color="#cc241d"/>
</linearGradient>
</defs>
</svg>

<svg width="256" height="256" fill="none" version="1.1" viewBox="0 0 256 256" xmlns="http://www.w3.org/2000/svg">
  <path d="m55.08 15h100.5l60.4 60.15 2e-3 148.9c0 8.911-7.262 16.13-16.17 16.13h-144.8c-8.91 0-16.08-7.174-16.08-16.08v-193c0-8.91 7.173-16.08 16.08-16.08h1e-4z" fill="#ebdbb2"/>
  <path d="m115.8 116.1h68.17v67.9h-68.17" fill="url(#paint0_linear)"/>
  <path d="m154.8 113.7c0.17 14.84-7.683 28.61-20.56 36.08-6.329 3.668-13.51 5.599-20.83 5.599-7.315 0-14.5-1.931-20.83-5.599-12.86-7.465-20.71-21.24-20.56-36.08-0.15-14.84 7.703-28.61 20.56-36.07 6.329-3.667 13.51-5.598 20.83-5.598 7.314 0 14.5 1.931 20.83 5.598 12.88 7.465 20.73 21.24 20.56 36.07z" fill="url(#paint1_linear)"/>
  <path d="m155.6 20.32h-100.5c-5.973 0-10.76 4.792-10.76 10.76v193c0 5.973 4.792 10.76 10.76 10.76h144.8c5.992 0 10.85-4.856 10.85-10.81v-148.9l-55.08-54.83zm0-5.319h-100.5c-8.91 0-16.08 7.173-16.08 16.08v193c0 8.91 7.173 16.08 16.08 16.08h144.8c8.911 0 16.17-7.218 16.17-16.13l-2e-3 -148.9-60.4-60.15z" clip-rule="evenodd" fill="url(#paint2_linear)" fill-rule="evenodd"/>
  <path d="m155.6 17v44.23c0 8.91 7.259 15.93 16.17 15.93l44.23-0.0112v-2l-60.4-58.15z" fill="#282828" opacity=".25"/>
  <path d="m155.6 15v44.23c0 8.91 7.259 15.93 16.17 15.93l44.23-0.0112-60.4-60.15z" fill="url(#paint3_linear)"/>
  <defs>
    <linearGradient id="paint0_linear" x1="115.8" x2="115.8" y1="116.1" y2="184" gradientUnits="userSpaceOnUse">
      <stop stop-color="#fb4934" offset="1e-7"/>
      <stop stop-color="#fb4934" offset=".5"/>
      <stop stop-color="#cc241d" offset="1"/>
    </linearGradient>
    <linearGradient id="paint1_linear" x1="72" x2="72" y1="72" y2="155.3" gradientUnits="userSpaceOnUse">
      <stop stop-color="#b8bb26" offset="1e-7"/>
      <stop stop-color="#b8bb26" offset="1"/>
    </linearGradient>
    <linearGradient id="paint2_linear" x1="39" x2="39" y1="15" y2="240.2" gradientUnits="userSpaceOnUse">
      <stop stop-color="#fb4934" offset="1e-7"/>
      <stop stop-color="#fb4934" offset=".5"/>
      <stop stop-color="#cc241d" offset="1"/>
    </linearGradient>
    <linearGradient id="paint3_linear" x1="155.6" x2="155.6" y1="15" y2="75.16" gradientUnits="userSpaceOnUse">
      <stop stop-color="#fb4934" offset="1e-7"/>
      <stop stop-color="#fb4934" offset=".5"/>
      <stop stop-color="#cc241d" offset="1"/>
    </linearGradient>
  </defs>
</svg>
